X: 1355
T: the Strawberry Blossom - 2nd Setting   #2
R: reel
%S: s:2 b:12(6+6)
B: O'Neill's 1850 #1355
O: F.O'Neill
Z: Trish O'Neil
N: Compacted via repeats with multiple endings [JC]
M: C|
L: 1/8
K: D
|: fe (3(def) edBd | fd{e}dc \
[1 d2ag | fe (3(def) edBc | dBAF TE2D2 :|\
[2 defg | afge fdec | dBAF TE2HD2 |]
|: faab afdf | abaf gfeg |\
[1 faab afdf | gfed TB2A2 :|\
[2 f>a (3(aba) g>b (3(bc'b) | gfef gba"_D.C."f |]
